fs/text_indent_increase_rtl_16_regular.svg

<svg viewBox="0 0 16 16" fill="none" xmlns="http://www.w3.org/2000/svg" height="1em" width="1em">
  <path d="M4 3.5C4 3.22386 4.22386 3 4.5 3H10.5C10.7761 3 11 3.22386 11 3.5C11 3.77614 10.7761 4 10.5 4H4.5C4.22386 4 4 3.77614 4 3.5ZM14.8536 5.64645C15.0488 5.84171 15.0488 6.15829 14.8536 6.35355L13.7071 7.5L14.8536 8.64645C15.0488 8.84171 15.0488 9.15829 14.8536 9.35355C14.6583 9.54882 14.3417 9.54882 14.1464 9.35355L12.6464 7.85355C12.4512 7.65829 12.4512 7.34171 12.6464 7.14645L14.1464 5.64645C14.3417 5.45118 14.6583 5.45118 14.8536 5.64645ZM1 7.5C1 7.22386 1.22386 7 1.5 7H10.5C10.7761 7 11 7.22386 11 7.5C11 7.77614 10.7761 8 10.5 8H1.5C1.22386 8 1 7.77614 1 7.5ZM6 11.5C6 11.2239 6.22386 11 6.5 11H10.5C10.7761 11 11 11.2239 11 11.5C11 11.7761 10.7761 12 10.5 12H6.5C6.22386 12 6 11.7761 6 11.5Z" fill="#212121"/>
</svg>

<svg viewBox="0 0 16 16" fill="none" xmlns="http://www.w3.org/2000/svg" height="1em" width="1em">
  <path d="M4 3.5a.5.5 0 0 1 .5-.5h6a.5.5 0 0 1 0 1h-6a.5.5 0 0 1-.5-.5Zm10.854 2.146a.5.5 0 0 1 0 .708L13.707 7.5l1.147 1.146a.5.5 0 0 1-.708.708l-1.5-1.5a.5.5 0 0 1 0-.708l1.5-1.5a.5.5 0 0 1 .708 0ZM1 7.5a.5.5 0 0 1 .5-.5h9a.5.5 0 0 1 0 1h-9a.5.5 0 0 1-.5-.5Zm5 4a.5.5 0 0 1 .5-.5h4a.5.5 0 0 1 0 1h-4a.5.5 0 0 1-.5-.5Z" fill="#212121"/>
</svg>
